X:130
T: Anything When You Die!
T: Julia Clifford's
S: "ITM Session Tunes vol 3" ("Sully")
Z: B.Black
M: 4/4
L: 1/8
R: reel
K: D
F2 AF G2 BG|F2 AF E2 DE|F2 AF G2 BG|ABcA d4 :|
f2 df e2 de|fgaf e2 d2|f2 df efed|cABc d4|
f2 df e2 de|fgaf e2 d2|defg a2 z2|ABcA d4 :|
